svg/furkot/freepik/watersport.svg

<svg viewBox="0 0 512 512" xmlns="http://www.w3.org/2000/svg"><path d="m12.477 471.826c2.811 0 5.647-.954 7.963-2.89l45.372-37.834c2.872-2.405 8.758-2.749 11.913-.715l46.866 30.392c12.116 7.875 29.942 7.229 41.448-1.449l37.833-28.492c3.155-2.396 9.792-2.678 13.141-.548l48.713 30.763c11.833 7.468 29.623 7.361 41.386-.256l46.857-30.409c3.535-2.281 10.648-2.246 14.149.07l45.752 30.163c12.036 7.963 29.888 7.494 41.484-1.079l52.22-38.602c5.532-4.093 6.69-11.895 2.607-17.419-4.083-5.542-11.886-6.708-17.419-2.607l-52.221 38.594c-3.128 2.315-9.677 2.51-12.947.335l-45.761-30.171c-11.772-7.777-29.597-7.866-41.421-.176l-46.866 30.409c-3.598 2.316-10.915 2.369-14.537.089l-48.705-30.764c-12.151-7.652-29.96-6.919-41.439 1.715l-37.824 28.491c-3.128 2.369-9.625 2.591-12.912.451l-46.856-30.383c-12.32-8.016-30.145-6.947-41.431 2.475l-45.362 37.832c-5.285 4.402-5.991 12.25-1.599 17.535 2.491 2.951 6.036 4.48 9.596 4.48zm161.366-196.512c18.294 0 33.185-14.9 33.185-33.246 0-18.294-14.891-33.088-33.185-33.088-18.25 0-33.149 14.794-33.149 33.088-.001 18.355 14.899 33.246 33.149 33.246zm227.275-222.82-67.183 114.367-98.874 59.962c-4.914 2.714-9.023 6.814-11.887 11.834l-76.913 132.518c-5.161 8.873-2.156 20.353 6.77 25.522 8.881 5.321 20.309 2.254 25.531-6.619l60.087-89.214 110.372-76.392c5.021-2.757 9.129-6.866 11.843-11.833l80.518-137.035c6.372-11.082 2.554-25.266-8.529-31.744-11.17-6.364-25.372-2.492-31.735 8.634z"/></svg>

<svg xmlns="http://www.w3.org/2000/svg" viewBox="0 0 512 512"><path d="M12.477 471.826C15.288 471.826 18.124 470.872 20.44 468.936L65.812 431.102C68.684 428.697 74.57 428.353 77.725 430.387L124.591 460.779C136.707 468.654 154.533 468.008 166.039 459.33L203.872 430.838C207.027 428.442 213.664 428.16 217.013 430.29L265.726 461.053C277.559 468.521 295.349 468.414 307.112 460.797L353.969 430.388C357.504 428.107 364.617 428.142 368.118 430.458L413.87 460.621C425.906 468.584 443.758 468.115 455.354 459.542L507.574 420.94C513.106 416.847 514.264 409.045 510.181 403.521 506.098 397.979 498.295 396.813 492.762 400.914L440.541 439.508C437.413 441.823 430.864 442.018 427.594 439.843L381.833 409.672C370.061 401.895 352.236 401.806 340.412 409.496L293.546 439.905C289.948 442.221 282.631 442.274 279.009 439.994L230.304 409.23C218.153 401.578 200.344 402.311 188.865 410.945L151.041 439.436C147.913 441.805 141.416 442.027 138.129 439.887L91.273 409.504C78.953 401.488 61.128 402.557 49.842 411.979L4.48 449.811C-0.805 454.213-1.511 462.061 2.881 467.346 5.372 470.297 8.917 471.826 12.477 471.826ZM173.843 275.314C192.137 275.314 207.028 260.414 207.028 242.068 207.028 223.774 192.137 208.98 173.843 208.98 155.593 208.98 140.694 223.774 140.694 242.068 140.693 260.423 155.593 275.314 173.843 275.314ZM401.118 52.494L333.935 166.861 235.061 226.823C230.147 229.537 226.038 233.637 223.174 238.657L146.261 371.175C141.1 380.048 144.105 391.528 153.031 396.697 161.912 402.018 173.34 398.951 178.562 390.078L238.649 300.864 349.021 224.472C354.042 221.715 358.15 217.606 360.864 212.639L441.382 75.604C447.754 64.522 443.936 50.338 432.853 43.86 421.683 37.496 407.481 41.368 401.118 52.494Z"/></svg>
